src/topics/icons/webtorrent.svg

<svg height="295" preserveAspectRatio="xMidYMid" viewBox="0 0 256 295" width="256" xmlns="http://www.w3.org/2000/svg"><path d="m125.331226 293.510178c-3.118136-1.657931-121.47547819-70.036925-122.63304569-70.849214-2.46348119-1.728673-2.29755433 3.704404-2.29755433-75.230604 0-78.934992-.16593648-73.5015823 2.29755433-75.2308843.60927158-.4276923 28.66912709-16.6875423 62.35523369-36.1329994 42.266954-24.3987907 61.696973-35.40849428 62.697966-35.52677862 1.810917-.21399096-4.430844-3.71081647 67.329566 37.72008322 42.380475 24.4683839 59.226313 34.3914967 59.850308 35.2550861l.868433 1.2018779v72.7136151 72.713615l-.868297 1.201878c-.623979.863697-17.464977 10.783713-59.851802 35.255086-67.060222 38.716174-65.521189 37.845614-66.919762 37.853374-.573128.003205-1.846001-.421683-2.8286-.944135z" fill="#eb324b"/><path d="m126.397496 275.238148c-.440688-.187958-24.952168-14.300485-54.4699572-31.36117-34.3518308-19.854667-53.9625577-31.413019-54.4851314-32.112953-.8134222-1.08949-.8164293-1.326452-.8164293-64.333665 0-63.0474677.0024839-63.243486.8180209-64.3357967.5247159-.7028022 20.0606059-12.2166926 54.4851343-32.111963 29.5169117-17.0589722 54.1159397-31.1939269 54.6645057-31.4110117.548569-.2170844 1.553042-.290459 2.232167-.1630548.967508.1815052 104.484598 59.604476 108.80504 62.4584674.583664.3855544 1.247317 1.1879962 1.474785 1.7832022.276007.7222125.456064 22.0277466.541297 64.0498856l.12772 62.967695-.838675 1.132462c-.553164.746943-12.009384 7.574343-33.652582 20.055453-81.042601 46.735319-75.862663 43.807777-77.409628 43.749578-.371256-.013966-1.035578-.179176-1.476267-.367129zm2.768802-69.648222c1.108793-2.144162 5.304104-7.486974 8.676109-11.049192 1.858039-1.962847 8.966983-8.559118 15.797656-14.658372 15.763879-14.075913 20.858191-19.385153 26.140969-27.243864 6.775286-10.078973 10.003182-22.102315 8.4969-31.649453-1.649994-10.458-8.018024-19.168567-17.410952-23.8157277-4.050521-2.0039992-6.982703-2.6919702-12.419406-2.913941-3.993395-.1630388-5.418097-.0514124-8.413145.6591819-8.679005 2.0591535-16.207641 7.7523128-20.303793 15.3537418-.682731 1.26698-1.393457 2.3036-1.579392 2.3036-.185934 0-.785363-.882711-1.332065-1.961577-1.428921-2.819834-5.44665-7.664252-7.915821-9.544574-6.925392-5.2738239-12.884536-7.1806913-21.3039269-6.8170552-5.4478603.2352957-8.7484414 1.0811293-13.1137703 3.360647-7.4686858 3.9000502-13.5733563 11.5152762-15.8484712 19.7700712-.892779 3.239257-.9928633 13.339891-.1687196 17.026604 1.9204607 8.590915 6.3593885 17.046062 13.2506361 25.239436 3.8701351 4.601406 11.215328 11.69507 22.2433349 21.481633 13.55379 12.028014 18.432753 17.104851 22.403462 23.312065.802125 1.25392 1.628516 2.279855 1.836433 2.279855.207913 0 .641699-.509885.963962-1.133079z" fill="#333943"/><path d="m151.605211 228.561527c-12.321833-11.156676-22.46291-20.550979-22.535724-20.876231-.146313-.653549 1.672874-3.68261 4.06673-6.771368 3.655913-4.717167 8.412621-9.417238 20.100431-19.861105 19.502132-17.426505 24.870605-23.371406 30.362377-33.622463 3.733246-6.968548 5.500888-13.982588 5.490515-21.786437-.007852-5.913632-.76804-9.263206-3.27597-14.434899-.631695-1.302639-1.098172-2.488276-1.036608-2.634741.112612-.267926 52.386566 48.130336 53.695651 49.714551.651526.78846.700948 2.650982.698989 26.343967-.002004 23.550674-.055431 25.581803-.701096 26.626592-.511996.828478-9.058726 5.95998-31.947814 19.181623-17.186855 9.927808-31.533523 18.130393-31.881487 18.227965-.40982.114924-8.523758-6.967498-23.035994-20.107454z" fill="#252a32"/></svg>

<?xml version="1.0" encoding="UTF-8" standalone="no"?>
<svg width="256px" height="295px" viewBox="0 0 256 295" version="1.1" xmlns="http://www.w3.org/2000/svg" xmlns:xlink="http://www.w3.org/1999/xlink" preserveAspectRatio="xMidYMid">
	<g>
		<path d="M125.331226,293.510178 C122.21309,291.852247 3.85574781,223.473253 2.69818031,222.660964 C0.234699117,220.932291 0.400625978,226.365368 0.400625978,147.43036 C0.400625978,68.495368 0.234689502,73.9287777 2.69818031,72.1994757 C3.30745189,71.7717834 31.3673074,55.5119334 65.053414,36.0664763 C107.320368,11.6676856 126.750387,0.657982017 127.75138,0.539697678 C129.562297,0.325706717 123.320536,-3.17111879 195.080946,38.2597809 C237.461421,62.7281648 254.307259,72.6512776 254.931254,73.514867 L255.799687,74.7167449 L255.799687,147.43036 L255.799687,220.143975 L254.93139,221.345853 C254.307411,222.20955 237.466413,232.129566 195.079588,256.600939 C128.019366,295.317113 129.558399,294.446553 128.159826,294.454313 C127.586698,294.457518 126.313825,294.03263 125.331226,293.510178 L125.331226,293.510178 Z" fill="#EB324B"></path>
		<path d="M126.397496,275.238148 C125.956808,275.05019 101.445328,260.937663 71.9275388,243.876978 C37.575708,224.022311 17.9649811,212.463959 17.4424074,211.764025 C16.6289852,210.674535 16.6259781,210.437573 16.6259781,147.43036 C16.6259781,84.3828923 16.628462,84.186874 17.443999,83.0945633 C17.9687149,82.3917611 37.5046049,70.8778707 71.9291333,50.9826003 C101.446045,33.9236281 126.045073,19.7886734 126.593639,19.5715886 C127.142208,19.3545042 128.146681,19.2811296 128.825806,19.4085338 C129.793314,19.590039 233.310404,79.0130098 237.630846,81.8670012 C238.21451,82.2525556 238.878163,83.0549974 239.105631,83.6502034 C239.381638,84.3724159 239.561695,105.67795 239.646928,147.700089 L239.774648,210.667784 L238.935973,211.800246 C238.382809,212.547189 226.926589,219.374589 205.283391,231.855699 C124.24079,278.591018 129.420728,275.663476 127.873763,275.605277 C127.502507,275.591311 126.838185,275.426101 126.397496,275.238148 L126.397496,275.238148 Z M129.166298,205.589926 C130.275091,203.445764 134.470402,198.102952 137.842407,194.540734 C139.700446,192.577887 146.80939,185.981616 153.640063,179.882362 C169.403942,165.806449 174.498254,160.497209 179.781032,152.638498 C186.556318,142.559525 189.784214,130.536183 188.277932,120.989045 C186.627938,110.531045 180.259908,101.820478 170.86698,97.1733173 C166.816459,95.1693181 163.884277,94.4813471 158.447574,94.2593763 C154.454179,94.0963375 153.029477,94.2079639 150.034429,94.9185582 C141.355424,96.9777117 133.826788,102.670871 129.730636,110.2723 C129.047905,111.53928 128.337179,112.5759 128.151244,112.5759 C127.96531,112.5759 127.365881,111.693189 126.819179,110.614323 C125.390258,107.794489 121.372529,102.950071 118.903358,101.069749 C111.977966,95.7959251 106.018822,93.8890577 97.5994311,94.2526938 C92.1515708,94.4879895 88.8509897,95.3338231 84.4856608,97.6133408 C77.016975,101.513391 70.9123045,109.128617 68.6371896,117.383412 C67.7444106,120.622669 67.6443263,130.723303 68.46847,134.410016 C70.3889307,143.000931 74.8278585,151.456078 81.7191061,159.649452 C85.5892412,164.250858 92.9344341,171.344522 103.962441,181.131085 C117.516231,193.159099 122.395194,198.235936 126.365903,204.44315 C127.168028,205.69707 127.994419,206.723005 128.202336,206.723005 C128.410249,206.723005 128.844035,206.21312 129.166298,205.589926 L129.166298,205.589926 Z" fill="#333943"></path>
		<path d="M151.605211,228.561527 C139.283378,217.404851 129.142301,208.010548 129.069487,207.685296 C128.923174,207.031747 130.742361,204.002686 133.136217,200.913928 C136.79213,196.196761 141.548838,191.49669 153.236648,181.052823 C172.73878,163.626318 178.107253,157.681417 183.599025,147.43036 C187.332271,140.461812 189.099913,133.447772 189.08954,125.643923 C189.081688,119.730291 188.3215,116.380717 185.81357,111.209024 C185.181875,109.906385 184.715398,108.720748 184.776962,108.574283 C184.889574,108.306357 237.163528,156.704619 238.472613,158.288834 C239.124139,159.077294 239.173561,160.939816 239.171602,184.632801 C239.169598,208.183475 239.116171,210.214604 238.470506,211.259393 C237.95851,212.087871 229.41178,217.219373 206.522692,230.441016 C189.335837,240.368824 174.989169,248.571409 174.641205,248.668981 C174.231385,248.783905 166.117447,241.701483 151.605211,228.561527 L151.605211,228.561527 Z" fill="#252A32"></path>
	</g>
</svg>
